assets/svgs/valentine-color/ValentineColor7.svg

<svg xmlns="http://www.w3.org/2000/svg" data-name="Layer 1" viewBox="0 0 128 128"><path fill="#fc574f" d="M28.086 47.917h71.828v40H28.086z"/><path fill="#fff3f3" d="M76.083 40.083H51.917l-3 7.834h30.166l-3-7.834z"/><circle cx="64" cy="67.917" r="12.722" fill="#fff3f3"/><path fill="#fff3f3" d="M33 43.509h7.25v4.407H33z"/><path fill="#30317b" d="M99.914 46.667h-49.18l2.042-5.333h22.448l1.006 2.626a1.25 1.25 0 102.335-.894l-1.313-3.43a1.25 1.25 0 00-1.168-.8H51.917a1.25 1.25 0 00-1.167.8l-2.693 7.03H41.5v-3.157a1.25 1.25 0 00-1.25-1.25H33a1.25 1.25 0 00-1.25 1.25v3.157h-3.664a1.25 1.25 0 00-1.25 1.25v40a1.25 1.25 0 001.25 1.25h71.828a1.25 1.25 0 001.25-1.25v-40a1.25 1.25 0 00-1.25-1.249zM34.25 44.759H39v1.907h-4.75zm64.414 41.908H29.336v-37.5h69.328z"/><path fill="#30317b" d="M52.086 75.222a1.25 1.25 0 002.131-1.309 11.467 11.467 0 113.337 3.5 1.25 1.25 0 00-1.406 2.066 13.959 13.959 0 10-4.062-4.254z"/></svg>

<svg id="Layer_1" data-name="Layer 1" xmlns="http://www.w3.org/2000/svg" viewBox="0 0 128 128"><title>VALENTINE CAMERA</title><rect x="28.086" y="47.917" width="71.828" height="40" style="fill:#fc574f"/><polygon points="76.083 40.083 51.917 40.083 48.917 47.917 79.083 47.917 76.083 40.083" style="fill:#fff3f3"/><circle cx="64" cy="67.917" r="12.722" style="fill:#fff3f3"/><rect x="33" y="43.509" width="7.25" height="4.407" style="fill:#fff3f3"/><path d="M99.914,46.667H50.734l2.042-5.333H75.224L76.23,43.96a1.25,1.25,0,1,0,2.335-.894l-1.313-3.43a1.25,1.25,0,0,0-1.168-.8H51.917a1.25,1.25,0,0,0-1.167.8l-2.693,7.03H41.5V43.509a1.25,1.25,0,0,0-1.25-1.25H33a1.25,1.25,0,0,0-1.25,1.25v3.157H28.086a1.25,1.25,0,0,0-1.25,1.25v40a1.25,1.25,0,0,0,1.25,1.25H99.914a1.25,1.25,0,0,0,1.25-1.25v-40A1.25,1.25,0,0,0,99.914,46.667ZM34.25,44.759H39v1.907H34.25ZM98.664,86.667H29.336v-37.5H98.664Z" style="fill:#30317b"/><path d="M52.086,75.222a1.25,1.25,0,0,0,2.131-1.309,11.467,11.467,0,1,1,3.337,3.5,1.25,1.25,0,0,0-1.406,2.066,13.959,13.959,0,1,0-4.062-4.254Z" style="fill:#30317b"/></svg>
